X:1
T:Tollite jugum meum - Gabrieli
T:#
%%score [ 1 2 3 4 ]
L:1/8
Q:1/4=200
M:none
K:C
V:1 treble nm="Soprano" snm="S"
V:2 treble nm="Alto" snm="A"
V:3 treble-8 nm="Tenor" snm="T"
V:4 bass nm="Bass" snm="B"
V:1
"^Tollite jugum meum""^Andrea Gabrieli\n(c. 1510-1586)" d12 d4 | B4 (d8 c2 B2 | c4) B4 e8 | %3
w: Tol- li-|te ju\- * *|* gum me-|
 d4 (c6 d2 e2 c2 | d6 e2 f8 | e4 d8) ^c4 | d16 |[M:4/2] z8 d8- | d4 d4 c8 | B8 A4 (d4- | %10
w: um su\- * * *||* * per|vos,|di\-|* cit Do-|mi- nus, Do\-|
 d2 c2 B2 A2 B4) d4 | G16 | z16 | z16 | z4 g8 g4 | f8 e8 | d8 (G6 A2 | B8) c4 (A4- | %18
w: * * * * * mi-|nus,|||di- cit|Do- mi-|nus, di\- *|* cit Do\-|
 A2 G2 G8) ^F4 | G16 | z8 z4 G4 | d12 d4 | c4 e4 d8 | z4 A4 B4 c4- | c4 B4 A4 A4 | d12 d4 | %26
w: * * * mi-|nus,|et|di- sci-|te a me,|qui- a mi\-|* tis sum, et|di- sci-|
 c4 e4 d8 | z4 d4 e4 g4- | g4 f4 (e2 d2 c2 B2 | A4) B4 A4 (A2 B2 | c2 B2 G2 A2 B4 c4- | c4) B4 c8 | %32
w: te a me,|qui- a mi\-|* tis sum, * * *|* qui- a mi\- *||* tis sum,|
 z16 | d8 c8- | c4 A4 A8- | A4 (d8 ^c4) | d8 z4 A4 | _B12 G4 | A4 (G8 ^F4) | G4 d8 B4 | c4 d4 e8 | %41
w: |et hu\-|* mi- lis|* cor\- *|de, et|hu- mi-|lis cor\- *|de: Ju- gum|e- nim me-|
 d4 d4 c4 A4 | B8 z8 | z4 B8 G4 | A4 B4 c8 | B8 z8 | z4 g4 f4 d4 | e8 z8 | z8 d8 | e12 d4 | %50
w: um su- a- ve|est,|ju- gum|e- nim me-|um|su- a- ve|est,|et|o- nus|
 c4 B4 (A2 G2 G4- | G4 ^F4) G8 | z16 | z8 d8 | e12 d4 | c4 B4 (A2 G2 G4- | G4 ^F4) G4 G4 | g12 f4 | %58
w: me- um le\- * *|* * ve,||et|o- nus|me- um le\- * *|* * ve, et|o- nus|
 e4 d4 c8 | B16 |] %60
w: me- um le-|ve.|
V:2
 z16 | G12 G4 | E4 (G8 F2 E2 | F4) E4 A8 | G4 (F6 G2 A2 F2 | G6 F2 E4) E4 | D8 z4 A4- | %7
w: |Tol- li-|te ju\- * *|* gum me-|um su\- * * *|* * * per|vos, di\-|
[M:4/2] A4 A4 G8 | F8 E4 E4 | ^F4 G8 F4 | G16 | z16 | z16 | z16 | z16 | z4 A4 A4 G4- | G4 F4 E8 | %17
w: * cit Do-|mi- nus, di-|cit Do- mi-|nus,|||||di- cit Do\-|* mi- nus,|
 D8 A,4 (A,2 B,2 | C2 D2 E2 C2 D4) D4 | D8 z4 D4 | G12 G4 | F4 A4 G8 | z4 E4 F4 G4- | %23
w: di- cit Do\- *|* * * * * mi-|nus, et|di- sci-|te a me,|qui- a mi\-|
 G4 F4 (E6 DC | D8) z4 E4 | G6 G2 F4 A4 | G4 E4 A8- | A4 A4 G8 | _B4 A8 E4 | ^F4 G8 =F4 | %30
w: * tis sum, * *|* et|di- sci- te a|me, et di\-|* sci- te|a me, qui-|a mi- tis|
 (E6 F2 G8) | D8 F4 E4- | E4 D4 (C2 D2 E2 F2 | G8) z4 C4- | C4 F8 F4 | F4 (A6 GF E4) | F4 A4 F8- | %37
w: sum, * *|qui- a mi\-|* tis sum, * * *|* et|* hu- mi-|lis cor\- * * *|de, et hu\-|
 F4 D4 D8 | (E12 D2 C2) | D16 | z4 G8 E4 | F4 G4 A8 | G16- | G16 | z4 G4 E4 C4 | D8 z4 A4 | %46
w: * mi- lis|cor\- * *|de:|Ju- gum|e- nim me-|um||su- a- ve|est, su-|
 G4 E4 F4 A4 | c12 B4 | A4 G4 F8 | E4 G4 G8- | G4 F4 E4 E4 | (E4 D2 C2) D4 G4 | c12 B4 | A4 G4 F8 | %54
w: a- ve est, et|o- nus|me- um le-|ve, et o\-|* nus me- um|le\- * * ve, et|o- nus|me- um le-|
 E4 G4 G8- | G4 F4 E4 E4 | D8 B,4 D4 | D8 G8 | G4 G4 G8 | G16 |] %60
w: ve, et o\-|* nus me- um|le- ve, et|o- nus|me- um le-|ve.|
V:3
 z16 | z16 | z16 | z16 | z16 | z4 g8 g4 | f16 |[M:4/2][K:treble-8] e8 d8 | z16 | d12 d4 | %10
w: |||||Di- cit|Do-|mi- nus,||tol- li-|
 B4 (d8 c2 B2 | c4) B4 e8 | d4 (c6 d2 e2 c2) | (d6 e2 f8 | e4 d8) ^c4 | d8 z8 | z16 | z8 z4 c4- | %18
w: te ju\- * *|* gum me-|um su\- * * *||* * per|vos.||di\-|
 c4 c4 B4 A4 | G16- | G8 z8 | z8 z4 G4 | A4 c8 B4 | A8 z8 | z4 G4 A4 c4- | c4 B4 d4 d4 | %26
w: * cit Do- mi-|nus,||qui-|a mi- tis|sum,|qui- a mi\-|* tis sum, qui-|
 e4 (g8 f2 e2 | d2 c2 d8) c4 | d8 A8 | d12 d4 | c4 e4 d8 | G8 A4 c4- | c4 B4 A8 | z4 d4 e6 e2 | %34
w: a mi\- * *|* * * tis|sum, et|di- sci-|te a me,|qui- a mi\-|* tis sum|et hu- mi-|
 A4 (c8 d4- | d2 e2 f2 d2 e8) | d4 f4 d8- | d4 G4 G8 | c16 | B16 | z16 | z16 | z4 d8 B4 | %43
w: lis cor\- *||de, et hu\-|* mi- lis|cor-|de:|||Ju- gum|
 c4 d4 e8 | d4 d4 c4 A4 | B8 A4 d4- | d4 ^c4 d4 f4 | e4 =c4 d4 e4 | (A2 B2 c6 BA B4) | c4 c4 e8- | %50
w: e- nim me-|um su- a- ve|est, su- a\-|* ve est, et|o- nus me- um|le\- * * * * *|ve, et o\-|
 e4 d4 c4 B4 | A8 G4 B4 | e4 c4 d4 e4 | (A2 B2 c6 BA B4) | c4 c4 e8- | e4 d4 c4 B4 | A8 G4 B4 | %57
w: * nus me- um|le- ve, et|o- nus me- um|le\- * * * * *|ve, et o\-|* nus me- um|le- ve, et|
 B8 B8 | c4 d4 e8 | d16 |] %60
w: o- nus|me- um le-|ve.|
V:4
 z16 | z16 | z16 | z16 | z16 | z16 | z4 D8 D4 |[M:4/2] C8 B,8 | A,16 | z16 | G,12 G,4 | %11
w: ||||||Di- cit|Do- mi-|nus,||tol- li-|
 E,4 (G,8 F,2 E,2 | F,4) E,4 A,8 | G,4 (F,6 G,2 A,2 F,2 | G,6 F,2 E,4) E,4 | D,8 z8 | z8 z4 G,4- | %17
w: te ju\- * *|* gum me-|um su\- * * *|* * * per|vos,|di\-|
 G,4 G,4 F,8 | E,8 D,8 | z4 G,4 D8- | D4 D4 C4 E4 | D8 z8 | z16 | D,8 G,8- | G,4 G,4 F,4 A,4 | %25
w: * cit Do-|mi- nus,|et di\-|* sci- te a|me,||et di\-|* sci- te a|
 G,8 z8 | C,8 D,8 | F,8 E,8 | D,8 z8 | z16 | z4 C,4 G,8- | G,4 G,4 F,4 A,4 | G,4 G,4 A,4 C4- | %33
w: me,|qui- a|mi- tis|sum,||et di\-|* sci- te a|me, qui- a mi\-|
 C4 B,4 A,4 A,4 | F,12 D,4 | D,8 A,8 | D,16 | z4 D4 _B,6 B,2 | A,4 (C2 =B,2 A,2 G,2 A,4) | G,16 | %40
w: * tis sum et|hu- mi-|lis cor-|de,|et hu- mi-|lis cor\- * * * *|de:|
 z16 | _B,8 A,4 F,4 | G,16 | z4 G,8 E,4 | F,4 G,4 A,8 | G,4 G,4 F,4 D,4 | E,8 z4 D,4 | A,8 G,8 | %48
w: |su- a- ve|est,|ju- gum|e- nim me-|um su- a- ve|est, et|o- nus|
 F,4 E,4 D,8 | C,8 z8 | z8 C,8 | C8 B,4 G,4 | A,8 G,8 | F,4 E,4 D,8 | C,16- | C,16 | D,8 G,8- | %57
w: me- um le-|ve,|et|o- nus, et|o- nus|me- um le-|ve,||et o\-|
 G,4 F,4 E,4 D,4 | C,16 | G,16 |] %60
w: * nus me- um|le-|ve.|

